svgs/sharp-regular/octagon-plus.svg

<svg xmlns="http://www.w3.org/2000/svg" viewBox="0 0 512 512"><!--! Font Awesome Pro 6.6.0 by @fontawesome - https://fontawesome.com License - https://fontawesome.com/license (Commercial License) Copyright 2024 Fonticons, Inc. --><path d="M48 332.1l0-152.2L179.9 48l152.2 0L464 179.9l0 152.2L332.1 464l-152.2 0L48 332.1zM160 0L0 160 0 352 160 512l192 0L512 352l0-192L352 0 160 0zm72 368l48 0 0-24 0-64 64 0 24 0 0-48-24 0-64 0 0-64 0-24-48 0 0 24 0 64-64 0-24 0 0 48 24 0 64 0 0 64 0 24z"/></svg>

<svg xmlns="http://www.w3.org/2000/svg" viewBox="0 0 512 512"><!--! Font Awesome Pro 6.5.2 by @fontawesome - https://fontawesome.com License - https://fontawesome.com/license (Commercial License) Copyright 2024 Fonticons, Inc. --><path d="M48 332.1V179.9L179.9 48H332.1L464 179.9V332.1L332.1 464H179.9L48 332.1zM160 0L0 160V352L160 512H352L512 352V160L352 0H160zm72 368h48V344 280h64 24V232H344 280V168 144H232v24 64H168 144v48h24 64v64 24z"/></svg>
